manual/professional/dde/zh_CN/icon/Backspace.svg

<?xml version="1.0" encoding="UTF-8" standalone="no"?>
<!-- Generator: Adobe Illustrator 18.0.0, SVG Export Plug-In . SVG Version: 6.00 Build 0)  -->

<svg
   xmlns:dc="http://purl.org/dc/elements/1.1/"
   xmlns:cc="http://creativecommons.org/ns#"
   xmlns:rdf="http://www.w3.org/1999/02/22-rdf-syntax-ns#"
   xmlns:svg="http://www.w3.org/2000/svg"
   xmlns="http://www.w3.org/2000/svg"
   xmlns:sodipodi="http://sodipodi.sourceforge.net/DTD/sodipodi-0.dtd"
   xmlns:inkscape="http://www.inkscape.org/namespaces/inkscape"
   version="1.1"
   id="图层_1"
   x="0px"
   y="0px"
   viewBox="0 0 30 20"
   enable-background="new 0 0 30 20"
   xml:space="preserve"
   sodipodi:docname="Backspace.svg"
   width="30"
   height="20"
   inkscape:version="0.92.1 r15371"><metadata
     id="metadata19"><rdf:RDF><cc:Work
         rdf:about=""><dc:format>image/svg+xml</dc:format><dc:type
           rdf:resource="http://purl.org/dc/dcmitype/StillImage" /><dc:title></dc:title></cc:Work></rdf:RDF></metadata><defs
     id="defs17" /><sodipodi:namedview
     pagecolor="#ffffff"
     bordercolor="#666666"
     borderopacity="1"
     objecttolerance="10"
     gridtolerance="10"
     guidetolerance="10"
     inkscape:pageopacity="0"
     inkscape:pageshadow="2"
     inkscape:window-width="836"
     inkscape:window-height="480"
     id="namedview15"
     showgrid="false"
     fit-margin-top="0"
     fit-margin-left="0"
     fit-margin-right="0"
     fit-margin-bottom="0"
     inkscape:zoom="10.7"
     inkscape:cx="15"
     inkscape:cy="10"
     inkscape:window-x="0"
     inkscape:window-y="0"
     inkscape:window-maximized="0"
     inkscape:current-layer="图层_1" /><g
     id="g8"><path
       d="M 25.667,19.5 H 4.333 C 2.225,19.5 0.5,17.775 0.5,15.667 V 4.333 C 0.5,2.225 2.225,0.5 4.333,0.5 h 21.334 c 2.108,0 3.833,1.725 3.833,3.833 v 11.334 c 0,2.108 -1.725,3.833 -3.833,3.833 z"
       id="path2"
       inkscape:connector-curvature="0"
       style="opacity:0.1;fill:#ffffff" /><g
       id="g6"><path
         stroke-miterlimit="10"
         d="m 25.5,19.5 h -21 c -2.209,0 -4,-1.791 -4,-4 v -11 c 0,-2.209 1.791,-4 4,-4 h 21 c 2.209,0 4,1.791 4,4 v 11 c 0,2.209 -1.791,4 -4,4 z"
         id="path4"
         inkscape:connector-curvature="0"
         style="fill:none;stroke:#cbcbcb;stroke-miterlimit:10" /></g></g><line
     stroke-miterlimit="10"
     x1="7"
     y1="9.5"
     x2="26"
     y2="9.5"
     id="line10"
     style="fill:none;stroke:#231815;stroke-miterlimit:10" /><polygon
     stroke-miterlimit="10"
     points="10.512,6.05 10.512,12.95 4.562,9.5 "
     id="polygon12"
     style="fill:#231815;stroke:#231815;stroke-linejoin:round;stroke-miterlimit:10" /></svg>

<?xml version="1.0" encoding="UTF-8"?>
<svg width="30px" height="20px" viewBox="0 0 30 20" version="1.1" xmlns="http://www.w3.org/2000/svg" xmlns:xlink="http://www.w3.org/1999/xlink">
    <!-- Generator: Sketch 64 (93537) - https://sketch.com -->
    <title>Backspace</title>
    <desc>Created with Sketch.</desc>
    <g id="页面-1" stroke="none" stroke-width="1" fill="none" fill-rule="evenodd">
        <g id="Backspace">
            <g id="g8">
                <path d="M25.667,19.5 L4.333,19.5 C2.225,19.5 0.5,17.775 0.5,15.667 L0.5,4.333 C0.5,2.225 2.225,0.5 4.333,0.5 L25.667,0.5 C27.775,0.5 29.5,2.225 29.5,4.333 L29.5,15.667 C29.5,17.775 27.775,19.5 25.667,19.5 Z" id="path2" fill="#FFFFFF" fill-rule="nonzero"></path>
                <g id="g6" stroke="#CBCBCB">
                    <path d="M25.5,19.5 L4.5,19.5 C2.291,19.5 0.5,17.709 0.5,15.5 L0.5,4.5 C0.5,2.291 2.291,0.5 4.5,0.5 L25.5,0.5 C27.709,0.5 29.5,2.291 29.5,4.5 L29.5,15.5 C29.5,17.709 27.709,19.5 25.5,19.5 Z" id="path4"></path>
                </g>
            </g>
            <line x1="7" y1="9.5" x2="26" y2="9.5" id="line10" stroke="#231815"></line>
            <polygon id="polygon12" stroke="#231815" fill="#231815" fill-rule="nonzero" stroke-linejoin="round" points="10.512 6.05 10.512 12.95 4.562 9.5"></polygon>
        </g>
    </g>
</svg>
